icons/svg/16x16/time/filled.svg

<svg xmlns="http://www.w3.org/2000/svg" width="16" height="16" viewBox="0 0 16 16">
  <path fill-rule="evenodd" d="M9.7076,11.707 C9.5126,11.902 9.2566,12 9.0006,12 C8.7446,12 8.4886,11.902 8.2936,11.707 L6.2936,9.707 C6.0446,9.459 5.9456,9.099 6.0306,8.758 L7.0306,4.758 C7.1646,4.221 7.7096,3.897 8.2436,4.03 C8.7786,4.164 9.1046,4.707 8.9706,5.242 L8.1076,8.693 L9.7076,10.293 C10.0986,10.684 10.0986,11.316 9.7076,11.707 M14.6096,4.328 C14.2906,2.856 13.1436,1.709 11.6716,1.391 C10.4886,1.135 9.2596,1 7.9996,1 C6.7396,1 5.5116,1.135 4.3286,1.391 C2.8556,1.708 1.7086,2.856 1.3906,4.328 C1.1346,5.512 0.9996,6.74 0.9996,8 C0.9996,9.26 1.1346,10.488 1.3906,11.672 C1.7086,13.144 2.8556,14.291 4.3276,14.609 C5.5116,14.865 6.7396,15 7.9996,15 C9.2596,15 10.4886,14.865 11.6716,14.609 C13.1436,14.291 14.2906,13.144 14.6096,11.672 C14.8656,10.488 14.9996,9.26 14.9996,8 C14.9996,6.74 14.8656,5.512 14.6096,4.328"/>
</svg>

<svg width="16" height="16" fill="none" xmlns="http://www.w3.org/2000/svg">
  <path fill-rule="evenodd" clip-rule="evenodd" d="M9.708 11.707a.997.997 0 01-1.414 0l-2-2a.997.997 0 01-.263-.949l1-4a1 1 0 111.94.484l-.863 3.451 1.6 1.6a.999.999 0 010 1.414zm4.902-7.379a3.832 3.832 0 00-2.938-2.937A17.35 17.35 0 008 1c-1.26 0-2.488.135-3.671.391A3.828 3.828 0 001.39 4.328 17.357 17.357 0 001 8c0 1.26.135 2.488.39 3.672a3.83 3.83 0 002.938 2.937C5.512 14.865 6.74 15 8 15c1.26 0 2.489-.135 3.672-.391a3.832 3.832 0 002.938-2.937C14.866 10.488 15 9.26 15 8c0-1.26-.134-2.488-.39-3.672z" fill="#000"/>
</svg>
